Flat-Remix-Dark/apps/scalable/crossover.svg

<svg xmlns="http://www.w3.org/2000/svg" xmlns:xlink="http://www.w3.org/1999/xlink" width="384pt" height="384pt" version="1.1" viewBox="0 0 384 384">
 <defs>
  <filter id="alpha" width="100%" height="100%" x="0%" y="0%" filterUnits="objectBoundingBox">
   <feColorMatrix in="SourceGraphic" type="matrix" values="0 0 0 0 1 0 0 0 0 1 0 0 0 0 1 0 0 0 1 0"/>
  </filter>
  <mask id="mask0">
   <g filter="url(#alpha)">
    <rect width="384" height="384" x="0" y="0" style="fill:rgb(0%,0%,0%);fill-opacity:0.2"/>
   </g>
  </mask>
  <clipPath id="clip1">
   <rect width="384" height="384" x="0" y="0"/>
  </clipPath>
  <g id="surface5" clip-path="url(#clip1)">
   <path style="fill:rgb(0%,0%,0%)" d="M 348 198 C 348 284.15625 278.15625 354 192 354 C 105.84375 354 36 284.15625 36 198 C 36 111.84375 105.84375 42 192 42 C 278.15625 42 348 111.84375 348 198 Z M 348 198"/>
  </g>
  <mask id="mask1">
   <g filter="url(#alpha)">
    <rect width="384" height="384" x="0" y="0" style="fill:rgb(0%,0%,0%);fill-opacity:0.101961"/>
   </g>
  </mask>
  <clipPath id="clip2">
   <rect width="384" height="384" x="0" y="0"/>
  </clipPath>
  <g id="surface8" clip-path="url(#clip2)">
   <path style="fill:rgb(0%,0%,0%)" d="M 208.351562 78.007812 C 214.972656 91.199219 220.277344 103.578125 224.828125 115.503906 C 211.574219 114.453125 199.078125 113.851562 187.867188 114.050781 C 84.519531 115.898438 68.835938 171.375 139.871094 279.914062 C 126.527344 282.144531 112.019531 283.65625 95.996094 284.257812 C 284.875 317.546875 333.929688 265.285156 244.097656 128.042969 C 257.429688 125.8125 272 124.347656 287.996094 123.75 C 269.394531 120.484375 252.285156 118.085938 236.382812 116.464844 C 227.960938 104.207031 218.851562 91.535156 208.351562 78.003906 Z M 230.242188 130.761719 C 255.976562 210.890625 230.417969 259.652344 153.699219 277.101562 C 128.039062 197.027344 153.527344 148.222656 230.242188 130.761719 Z M 149.246094 278.132812 C 146.238281 278.753906 143.210938 279.363281 140.058594 279.890625 C 143.214844 279.363281 146.21875 278.738281 149.246094 278.132812 Z M 147.535156 291.445312 C 155.976562 303.734375 165.105469 316.433594 175.636719 330 C 169.027344 316.832031 163.730469 304.480469 159.183594 292.570312 C 155.425781 292.273438 151.453125 291.847656 147.535156 291.445312 Z M 147.535156 291.445312"/>
  </g>
  <mask id="mask2">
   <g filter="url(#alpha)">
    <rect width="384" height="384" x="0" y="0" style="fill:rgb(0%,0%,0%);fill-opacity:0.2"/>
   </g>
  </mask>
  <clipPath id="clip3">
   <rect width="384" height="384" x="0" y="0"/>
  </clipPath>
  <g id="surface11" clip-path="url(#clip3)">
   <path style="fill:rgb(100%,100%,100%)" d="M 192 36 C 105.84375 36 36 105.84375 36 192 C 36.03125 193.179688 36.074219 194.359375 36.128906 195.539062 C 37.472656 110.394531 106.84375 42.058594 192 42 C 276.742188 42.046875 345.949219 109.738281 347.875 194.460938 C 347.921875 193.640625 347.964844 192.820312 348 192 C 348 105.84375 278.15625 36 192 36 Z M 192 36"/>
  </g>
 </defs>
 <g>
  <use mask="url(#mask0)" xlink:href="#surface5"/>
  <path style="fill:rgb(80%,80%,80%)" d="M 348 192 C 348 278.15625 278.15625 348 192 348 C 105.84375 348 36 278.15625 36 192 C 36 105.84375 105.84375 36 192 36 C 278.15625 36 348 105.84375 348 192 Z M 348 192"/>
  <use mask="url(#mask1)" xlink:href="#surface8"/>
  <path style="fill:rgb(95.294118%,45.490196%,12.941176%)" d="M 208.367188 72.003906 C 343.878906 246.589844 306.429688 315.347656 96 278.257812 C 237.273438 273.011719 274.734375 204.265625 208.367188 72.003906"/>
  <path style="fill:rgb(12.941176%,51.372549%,95.294118%)" d="M 187.871094 108.050781 C 84.523438 109.898438 68.835938 165.371094 139.871094 273.914062 C 144.640625 273.117188 149.3125 272.269531 153.746094 271.265625 C 122.351562 173.527344 166.945312 122.25 288 117.75 C 248.542969 110.804688 215.171875 107.566406 187.871094 108.054688 Z M 147.535156 285.445312 C 155.976562 297.734375 165.105469 310.433594 175.636719 324 C 169.027344 310.832031 163.730469 298.480469 159.183594 286.570312 C 155.425781 286.269531 151.457031 285.847656 147.535156 285.445312 Z M 147.535156 285.445312"/>
  <use mask="url(#mask2)" xlink:href="#surface11"/>
 </g>
</svg>

<svg xmlns="http://www.w3.org/2000/svg" xmlns:xlink="http://www.w3.org/1999/xlink" width="384pt" height="384pt" version="1.1" viewBox="0 0 384 384">
 <defs>
  <filter id="alpha" width="100%" height="100%" x="0%" y="0%" filterUnits="objectBoundingBox">
   <feColorMatrix in="SourceGraphic" type="matrix" values="0 0 0 0 1 0 0 0 0 1 0 0 0 0 1 0 0 0 1 0"/>
  </filter>
  <mask id="mask1">
   <g filter="url(#alpha)">
    <rect style="fill:rgb(0%,0%,0%);fill-opacity:0.101961" width="384" height="384" x="0" y="0"/>
   </g>
  </mask>
  <clipPath id="clip2">
   <rect width="384" height="384" x="0" y="0"/>
  </clipPath>
  <g id="surface8" clip-path="url(#clip2)">
   <path d="M 208.351562 78.007812 C 214.972656 91.199219 220.277344 103.578125 224.828125 115.503906 C 211.574219 114.453125 199.078125 113.851562 187.867188 114.050781 C 84.519531 115.898438 68.835938 171.375 139.871094 279.914062 C 126.527344 282.144531 112.019531 283.65625 95.996094 284.257812 C 284.875 317.546875 333.929688 265.285156 244.097656 128.042969 C 257.429688 125.8125 272 124.347656 287.996094 123.75 C 269.394531 120.484375 252.285156 118.085938 236.382812 116.464844 C 227.960938 104.207031 218.851562 91.535156 208.351562 78.003906 Z M 230.242188 130.761719 C 255.976562 210.890625 230.417969 259.652344 153.699219 277.101562 C 128.039062 197.027344 153.527344 148.222656 230.242188 130.761719 Z M 149.246094 278.132812 C 146.238281 278.753906 143.210938 279.363281 140.058594 279.890625 C 143.214844 279.363281 146.21875 278.738281 149.246094 278.132812 Z M 147.535156 291.445312 C 155.976562 303.734375 165.105469 316.433594 175.636719 330 C 169.027344 316.832031 163.730469 304.480469 159.183594 292.570312 C 155.425781 292.273438 151.453125 291.847656 147.535156 291.445312 Z M 147.535156 291.445312" style="fill:rgb(0%,0%,0%)"/>
  </g>
  <mask id="mask2">
   <g filter="url(#alpha)">
    <rect style="fill:rgb(0%,0%,0%);fill-opacity:0.2" width="384" height="384" x="0" y="0"/>
   </g>
  </mask>
  <clipPath id="clip3">
   <rect width="384" height="384" x="0" y="0"/>
  </clipPath>
  <g id="surface11" clip-path="url(#clip3)">
   <path d="M 192 36 C 105.84375 36 36 105.84375 36 192 C 36.03125 193.179688 36.074219 194.359375 36.128906 195.539062 C 37.472656 110.394531 106.84375 42.058594 192 42 C 276.742188 42.046875 345.949219 109.738281 347.875 194.460938 C 347.921875 193.640625 347.964844 192.820312 348 192 C 348 105.84375 278.15625 36 192 36 Z M 192 36" style="fill:rgb(100%,100%,100%)"/>
  </g>
 </defs>
 <g transform="matrix(1.0817308,0,0,1.0817308,-15.692313,-15.692314)">
  <path d="M 348,192 C 348,278.15625 278.15625,348 192,348 105.84375,348 36,278.15625 36,192 36,105.84375 105.84375,36 192,36 c 86.15625,0 156,69.84375 156,156 z m 0,0" style="fill:#f4f4f4"/>
  <use width="100%" height="100%" x="0" y="0" mask="url(#mask1)" xlink:href="#surface8"/>
  <path d="M 208.36719,72.003906 C 343.87891,246.58984 306.42969,315.34766 96,278.25781 237.27344,273.01172 274.73437,204.26562 208.36719,72.003906" style="fill:#fd7d00"/>
  <path d="m 187.87109,108.05078 c -103.347652,1.84766 -119.035152,57.32031 -48,165.86328 4.76953,-0.79687 9.44141,-1.64453 13.875,-2.64844 C 122.35156,173.52734 166.94531,122.25 288,117.75 248.54297,110.80469 215.17187,107.56641 187.87109,108.05469 Z m -40.33593,177.39453 c 8.4414,12.28906 17.57031,24.98828 28.10156,38.55469 -6.60938,-13.16797 -11.90625,-25.51953 -16.45313,-37.42969 -3.75781,-0.30078 -7.72656,-0.72265 -11.64843,-1.125 z m 0,0" style="fill:#357af0"/>
  <use width="100%" height="100%" x="0" y="0" mask="url(#mask2)" xlink:href="#surface11"/>
 </g>
 <path d="m 23.302286,187.9435 c -0.03181,1.34845 -0.05229,2.70039 -0.05229,4.05649 0,93.19787 75.55213,168.75 168.749994,168.75 93.19787,0 168.75,-75.55213 168.75,-168.75 0,-1.3561 -0.0205,-2.70804 -0.0523,-4.05649 -2.15461,91.32364 -76.85594,164.69351 -168.69771,164.69351 -91.84177,0 -166.543094,-73.36987 -168.697703,-164.69351 z" style="opacity:0.3"/>
</svg>
